packages/ui-icons/svg/Solid/link.svg

<svg viewBox="0 0 1920 1920" version="1.1" xmlns="http://www.w3.org/2000/svg">
    <path d="M1311.32612,891.546353 L1249.66024,829.880471 L1356.95435,722.473412 L1197.25553,562.774588 L1089.73553,670.407529 L1028.18259,610.096941 L1412.52141,225.193412 L1694.64847,506.642824 L1311.32612,891.546353 Z M891.862588,1309.42871 L508.540235,1694.33224 L225.396706,1412.88282 L609.735529,1027.97929 L670.949647,1089.19341 L560.944941,1199.08518 L720.643765,1358.784 L830.761412,1248.77929 L891.862588,1309.42871 Z M1854.34729,347.508706 L1571.31671,64.4781176 C1482.77082,-21.8089412 1340.12612,-21.4701176 1253.38729,65.4945882 L868.483765,450.398118 C780.954353,538.040471 780.954353,680.459294 868.483765,768.101647 L930.149647,829.880471 L830.648471,929.381647 L770.337882,869.184 C728.210824,826.040471 671.966118,802.096941 611.768471,801.758118 L610.413176,801.758118 C550.215529,801.758118 493.519059,825.362824 450.601412,868.167529 L65.6978824,1253.184 C-21.9444706,1340.82635 -21.9444706,1483.24518 65.6978824,1570.88753 L348.841412,1854.03106 C392.662588,1897.85224 450.149647,1919.76282 507.749647,1919.76282 C565.236706,1919.76282 622.836706,1897.85224 666.657882,1854.03106 L1051.56141,1469.12753 C1094.81788,1425.87106 1118.42259,1368.60988 1118.08376,1307.96047 C1117.632,1247.76282 1093.68847,1191.51812 1051.56141,1150.29459 L990.347294,1089.19341 L1089.96141,989.579294 L1151.62729,1051.35812 C1195.44847,1095.06635 1252.93553,1116.97694 1310.53553,1116.97694 C1368.02259,1116.97694 1425.62259,1095.06635 1469.33082,1051.24518 L1854.34729,666.341647 C1941.19906,579.489882 1941.65082,436.845176 1854.34729,347.508706 L1854.34729,347.508706 Z" stroke="none" stroke-width="1" fill-rule="evenodd"/>
</svg>

<svg viewBox="0 0 1920 1920" version="1.1" xmlns="http://www.w3.org/2000/svg">
    <path d="M1311.326 891.546l-61.666-61.666 107.294-107.407-159.698-159.698-107.52 107.633-61.553-60.311 384.338-384.904 282.127 281.45-383.322 384.903zM891.863 1309.43L508.54 1694.332l-283.143-281.45 384.339-384.903 61.214 61.214-110.005 109.892 159.699 159.699 110.117-110.005 61.102 60.65zm962.484-961.92l-283.03-283.03c-88.546-86.288-231.19-85.95-317.93 1.016L868.484 450.398c-87.53 87.642-87.53 230.061 0 317.704l61.666 61.778-99.502 99.502-60.31-60.198c-42.127-43.144-98.372-67.087-158.57-67.426h-1.355c-60.197 0-116.894 23.605-159.812 66.41L65.698 1253.184c-87.642 87.642-87.642 230.061 0 317.704L348.84 1854.03c43.822 43.821 101.309 65.732 158.909 65.732 57.487 0 115.087-21.91 158.908-65.732l384.903-384.903c43.257-43.257 66.862-100.518 66.523-161.168-.452-60.197-24.396-116.442-66.523-157.665l-61.214-61.102 99.614-99.614 61.666 61.78c43.821 43.707 101.309 65.618 158.909 65.618 57.487 0 115.087-21.91 158.795-65.732l385.016-384.903c86.852-86.852 87.304-229.497 0-318.833z" stroke="none" stroke-width="1" fill-rule="evenodd"/>
</svg>
